X: 591
T: Plimouth Hornpipe
M:3/2
L:1/4
S: 8: MCJLSH3 http://www.cpartington.plus.com/links/Walsh.abc
Z: Pete Stewart 2004
B: Walsh "Third Book of the most Celebrated jiggs, Lancashire hornpipes, ..."
K:A
Aceag>f | gB2ed/c/B/A/ | Aceag>b | EA2B/c/ d/c/B/A/ ||
a/g/f/e/ d/e/f/d/ e/f/g/e/ | gB2ed/c/B/A/ | d/c/B/A/ G/A/B/G/ A/B/c/A/ | EA2B/c/ d/c/B/A/ ||

%%sep 1 1 500
%%sep 1 1 500
